X: 8211
T: Cooper And Keegan's
R: slip jig
M: 9/8
K: Amajor
E3 FAe cBA|B3 Bce f2a|afe fec BAF|B3 dcB BAF|
E3 FAe cBA|B3 Bce f2a|afe fec BAF|1 Bdc BAG AGF:|2 Bdc BAG Ace||
fFF FGA def|eEF GAB cBc|dDE FAd cBA|B3 cBc daf|
e3 efa fec|d3 ded cAF|B3 fec ecA|1 Bdc BAG Ace:|2 Bdc BAG AGF||

